X:66
T:Polska ur Göran Peter Göranssons notbok
T:(SmM I:66)
O:Frinnaryd och Säby, Småland
R:Polska
B:Småländsk Musiktradition
S:Göran Peter Göransson
N:Början av 1800-talet. Nils Anderssons avskrift. FMK III:2.
M:3/4
L:1/16
K:Gm
d4 (dc)ed dcBA|BABd fbfe dcBA|BABd cAce d2(dA)|BAG^F GFGD B,G,B,D|
d4 (dc)ed dcBA|BABd fbfe dcBA|BABd cAce d2(dA)|BAG^F F2G2 [GG,]4:|
|:g3a b2bg a2a^f|ag^fg fgaf d3f|g3a b2bg a2(a^f)|d2=e^f g4 [GG,]4:|

